!!!OTL@@DE: Der Tod
!!!COM: Volksweise des 18. Jahrh.
!!!ODT: <1800
!!!OMD: M&auml;ssig
!!!LYR: Lessing, Gotthold Ephraim
!!!LDT: 1747
!!!OCL: Erk, Ludwig
!!!GCO: Deutscher Liederschatz, Band 1
**kern	**kern	**kern
*staff3	*staff2	*staff1
*Ipiano	*Ipiano	*Ivox
=1-	=1-	=1-
*clefF4	*clefG2	*clefG2
*k[b-]	*k[b-]	*k[b-]
*F:	*F:	*F:
*M3/4	*M3/4	*M3/4
*MM76	*MM76	*MM76
8F\ 8A\L	8c/ 8f/L	8f/
8F\ 8A\J	8c/ 8f/J	8f/
*	*^	*
4F\ (4A\	(4f/	4.c\	(4f/
8C\ 8G\L)	8e/L	.	8e/)
8F\ 8A\J	8f/J)	8c\	8f/
*	*v	*v	*
=2	=2	=2
8C/L	8B-/ 8e/ 8g/L	8g/
8C/J	8c/ 8f/ 8a/J	8a/
4C/	4B-/ 4e/ 4g/	4g/
4FF/	4A/ 4f/	4f/
=3	=3	=3
8F\L	8c/ 8f/ 8a/L	8a/
8F\J	8c/ 8f/ 8a/J	8a/
*	*^	*
(4F\	4f/ (4a/	4.c\	(4a/
8C\L)	8e/ 8g/L)	.	8g/)
8F\J	8f/ 8a/J	8c\	8a/
*	*v	*v	*
=4	=4	=4
8C\ 8G\L	8c/ 8e/ 8b-/L	8b-\
8C\ 8G\J	8c/ 8e/ 8cc/J	8cc\
*	*^	*
4C\ (4G\	4e/ (4b-/	2c\	4b-\
4FF/ 4F/)	4f/ 4a/)	.	4a/
*	*v	*v	*
=5	=5	=5
8AA/L	8c/ 8f/ 8cc/L	8cc\
8AA/J	8c/ 8f/ 8cc/J	8cc\
*^	*^	*
(8AA/L	2AA\	8f/ 8cc/L	2c\	(8cc\L
8C/	.	8a/	.	8a\J)
8F/	.	8f/	.	(8f/L
8A/J)	.	8e-/J	.	8e-/J)
*	*	*v	*v	*
=6	=6	=6	=6
(8B-/L	2BB-\	8d/L	8d/
8F/J	.	8d/J	8d/
4B-/)	.	4d/	4d'/
*v	*v	*	*
4r	4r	4r
=7	=7	=7
8G\L	8d/ 8g/ 8b-/L	8b-\
8A\J	8d/ 8f#/ 8a/J	8a/
*	*^	*
4B-\	(8g/L	4.d\	(8g/L
.	8a/	.	8a/
8BB-\ 8G\L	8g/)	.	8g/J)
8BBn\ 8G\J	8fn/J	8d\	8f/
=8	=8	=8	=8
*^	*	*	*
8G/L	4C\	8e/L	4c\	8e/
8E/J	.	8g/J	.	8g/
(8C/L	2C\	(8cc/L	2e\	(8cc/L
8G/	.	8b-/	.	8b-/
8c/	.	8a/	.	8a/
8B-/J)	.	8g/J)	.	8g/J)
*v	*v	*	*	*
*	*v	*v	*
=9	=9	=9
8F\ 8A\L	16f/LL	8f'/
.	16c/	.
8F\ 8A\J	16f/	8f'/
.	16c/JJ	.
4F\ 4A\	16f/LL	4f'/
.	16c/	.
.	16cc/	.
.	16a/JJ	.
4F\ 4A\	16f\LL	4ff\
.	16a\	.
.	16cc\	.
.	16ff\JJ	.
=10	=10	=10
*	*^	*
8BB-\ 8F\ 8B-\L	8dd/L	16dd\LL	16dd\
.	.	16f\	16dd\
8BB-\ 8F\ 8B-\J	8dd/J	16b-\	16dd\
.	.	16f\JJ	16dd\
4.BB-\ 4.F\ 4.B-\	4.dd/	16b-\LL	4.dd\
.	.	16f\	.
.	.	16d\	.
.	.	16f\JJ	.
.	.	(16b-\LL	.
.	.	16f\	.
8AA\ 8A\	8cc/	16f\)	8cc\
.	.	16c\JJ	.
*	*v	*v	*
=11	=11	=11
*^	*	*
8E/L	4C\	16g/ 16b-/LL	8b-\
.	.	16c/	.
8F/J	.	16f/ 16a/	8a/
.	.	16c/JJ	.
8B-/L	4C\	16e/ 16g/LL	8g/
.	.	16c/	.
8A/J	.	16f/ 16a/	8a/
.	.	16c/JJ	.
8C/L	4C\	16a/ 16cc/LL	16cc\
.	.	16g/ 16b-/	16b-\
8c/J	.	16f/ 16a/	16a/
.	.	16e/ 16g/JJ	16g/
*v	*v	*	*
=12	=12	=12
8F\ 8A\L	8f/L	8f/
8F\J	16f/ 16a/L	8a/
.	16c/JJ	.
*^	*^	*
16C/LL	(4C\	(16cc/LL	4e\	16cc\
16G/	.	16b-/	.	16b-\
16c/	.	16a/	.	16a/
16B-/JJ)	.	16g/JJ)	.	16g/
*v	*v	*	*	*
4F\ 4A\	4f/	4f\	4f/
*	*v	*v	*
==	==	==
*-	*-	*-
!!!ENC: Craig Stuart Sapp
!!!END: 2004/06/28/
!!!EFL: 181/651
